X: 25228
T: Mam, The
R: reel
M: 4/4
K: Aminor
|:dc A2 d2 d2|cA cd e2 e2|de fe dc A2|d2 cA F2 G2|
FG A2 d2 d2|cA cd e2 e2|de fe dc Ad|cA d4 d2:|
|:de f2 a2 a2|gf e2 g2 g2|fe f2 d2 d2|
[1 de fe dc Ac|de f2 a2 a2|gf e2 g2 g2|fe fe dc Ad|cA d4 d2:|
[2 de fe dc Ad|cA A2 d2 d2|cA cd e2 e2|de fe dc Ad|cA d4 d2||
M: 6/8
|:d2c A2 c|G2 c F2c|F2 c E2c|D2c-cd2|def afd|ege c3|
d2c A2c|G2c F2c|F2c E2c|D2 c-c d2|def edc|d6:|

